assets/featuresBg7.svg

<svg width="570" height="197" viewBox="0 0 570 197" fill="none" xmlns="http://www.w3.org/2000/svg">
<g clip-path="url(#clip0)">
<rect x="5" y="5" width="560" height="187" fill="#FFC856" stroke="#007550" stroke-width="10"/>
<rect width="570" height="197" fill="#FF513F"/>
<g style="mix-blend-mode:multiply" opacity="0.31">
<path d="M33 197L3.05772e-05 145L0 197H33Z" fill="#FF513F"/>
</g>
<g style="mix-blend-mode:multiply" opacity="0.2">
<path d="M360 0L570 140V0H360Z" fill="#FF513F"/>
</g>
<g style="mix-blend-mode:multiply" opacity="0.17">
<path d="M20 28.5L67.5 0H0L20 28.5Z" fill="#FF513F"/>
</g>
<g style="mix-blend-mode:multiply" opacity="0.1">
<path d="M4.1622 122.839L14.2186 120.144L19.0061 144.716L12.3018 146.512L4.1622 122.839ZM19.2039 158.863C17.7261 159.258 16.36 159.134 15.1056 158.49C13.8778 157.8 13.0848 156.787 12.7265 155.45C12.3682 154.113 12.5578 152.874 13.2952 151.733C14.0233 150.558 15.1442 149.767 16.6581 149.361C18.172 148.956 19.5381 149.08 20.7565 149.734C21.9654 150.353 22.749 151.331 23.1073 152.668C23.4656 154.006 23.2674 155.284 22.5127 156.505C21.7847 157.681 20.6818 158.467 19.2039 158.863Z" fill="#001E20"/>
</g>
<g style="mix-blend-mode:overlay" opacity="0.1">
<path d="M510.884 15.5603L559.472 51.8124L503.782 75.7647L510.884 15.5603Z" fill="white"/>
</g>
<g style="mix-blend-mode:overlay" opacity="0.1">
<path d="M385.451 55.6209L378.36 80.1316L360.678 61.7356L385.451 55.6209Z" fill="white"/>
</g>
<g style="mix-blend-mode:overlay" opacity="0.1">
<path d="M6.75785 129.366L28.8551 142.124L6.75785 154.881L6.75785 129.366Z" fill="white"/>
</g>
<g style="mix-blend-mode:screen" opacity="0.2">
<rect x="467.824" y="110.735" width="64" height="64" transform="rotate(24.0573 467.824 110.735)" fill="#FFC856"/>
</g>
<g style="mix-blend-mode:screen" opacity="0.2">
<rect x="47" y="-22.5662" width="96.8993" height="96.8993" transform="rotate(-24.0138 47 -22.5662)" fill="#FFC856"/>
</g>
<g style="mix-blend-mode:screen" opacity="0.4">
<g style="mix-blend-mode:overlay" opacity="0.57">
<g style="mix-blend-mode:overlay" opacity="0.57">
<path d="M354.486 248.43C311.322 248.44 281.317 232.866 268.059 207.876L292.815 207.871C306.652 224.145 330.613 233.906 362.825 233.899C404.321 233.89 450.723 217.685 490.045 192.218L511.22 192.213C464.354 226.179 406.053 248.419 354.486 248.43Z" fill="white"/>
</g>
<g style="mix-blend-mode:overlay" opacity="0.57">
<path d="M503.039 56.5664C500.861 56.5668 499.969 55.0407 501.051 53.1562C501.696 52.1637 502.567 51.3377 503.593 50.7456C504.618 50.1535 505.769 49.8121 506.952 49.7492C509.135 49.7485 510.028 51.2746 508.949 53.1545C508.303 54.1487 507.431 54.9761 506.403 55.5691C505.376 56.1621 504.224 56.5039 503.039 56.5664Z" fill="white"/>
</g>
<g style="mix-blend-mode:overlay" opacity="0.57">
<path d="M400.096 168.95C371.887 168.957 357.994 152.009 364.938 129.266L371.753 129.265C366.487 148.828 378.831 163.253 403.369 163.248C432.565 163.241 467.96 142.809 482.422 117.609C493.661 98.0245 488.945 81.331 472.585 74.8625L476.055 68.8157C495.992 75.526 502.1 94.8304 489.029 117.607C472.76 145.957 432.947 168.943 400.096 168.95Z" fill="white"/>
</g>
<g style="mix-blend-mode:overlay" opacity="0.57">
<path d="M370.031 190.533C340.067 184.532 326.76 161.857 336.275 133.04L338.83 133.039C329.919 160.665 342.671 182.4 371.294 188.333L370.031 190.533Z" fill="white"/>
</g>
<g style="mix-blend-mode:overlay" opacity="0.57">
<path d="M408.437 154.414C384.893 154.419 375.26 137.95 386.922 117.629C398.586 97.3037 427.126 80.8256 450.67 80.8204C474.219 80.8152 483.852 97.2848 472.188 117.61C460.526 137.931 431.986 154.409 408.437 154.414ZM448.324 84.91C427.396 84.9144 402.029 99.5602 391.66 117.628C381.294 135.691 389.856 150.329 410.784 150.325C431.717 150.32 457.084 135.675 467.45 117.612C477.819 99.5436 469.257 84.9054 448.324 84.91Z" fill="white"/>
</g>
<g style="mix-blend-mode:overlay" opacity="0.57">
<path d="M466.605 47.244C464.422 47.2442 463.53 45.7184 464.611 43.8336C465.257 42.8403 466.129 42.0139 467.156 41.4218C468.183 40.8297 469.335 40.4887 470.518 40.4266C472.702 40.426 473.594 41.9519 472.515 43.832C471.869 44.8263 470.997 45.6538 469.97 46.2468C468.942 46.8398 467.79 47.1815 466.605 47.244Z" fill="white"/>
</g>
<g style="mix-blend-mode:overlay" opacity="0.57">
<path d="M374.454 213.633C313.018 213.646 287.882 170.67 318.312 117.645C348.745 64.6141 423.218 21.6165 484.654 21.6031C546.096 21.5896 571.231 64.5653 540.799 117.596C510.369 170.621 435.896 213.619 374.454 213.633ZM478.531 32.2726C423.922 32.2844 357.725 70.5033 330.674 117.642C303.625 164.776 325.964 202.98 380.574 202.968C435.189 202.956 501.388 164.733 528.437 117.599C555.489 70.4596 533.146 32.2607 478.531 32.2726Z" fill="white"/>
</g>
<g style="mix-blend-mode:overlay" opacity="0.57">
<path d="M487.203 49.7538C485.019 49.7544 484.127 48.2285 485.208 46.3436C485.854 45.3493 486.727 44.5219 487.754 43.9289C488.781 43.3359 489.933 42.9942 491.118 42.9316C493.296 42.9313 494.194 44.4569 493.112 46.342C492.466 47.3359 491.593 48.163 490.566 48.756C489.539 49.3489 488.387 49.6908 487.203 49.7538Z" fill="white"/>
</g>
<g style="mix-blend-mode:overlay" opacity="0.57">
<path d="M260.482 171.813C260.711 167.111 261.294 162.432 262.228 157.817L280.057 157.813C279.36 162.444 279.088 167.129 279.243 171.809L260.482 171.813Z" fill="white"/>
</g>
<g style="mix-blend-mode:overlay" opacity="0.57">
<path d="M518.978 170.682C537.594 154.764 553.301 136.714 564.275 117.59C593.254 67.0938 580.617 24.1299 537.728 8.07951L546.529 -7.25558C598.551 9.35971 614.758 58.9646 581.116 117.587C570.27 136.488 555.309 154.45 537.644 170.678L518.978 170.682Z" fill="white"/>
</g>
<g style="mix-blend-mode:overlay" opacity="0.57">
<path d="M392.989 181.335C352.222 181.343 335.541 152.822 355.733 117.636C375.928 82.4458 425.349 53.915 466.116 53.9061C506.888 53.8972 523.572 82.4135 503.377 117.604C483.185 152.79 433.76 181.325 392.989 181.335ZM465.059 55.7471C425.472 55.7562 377.482 83.4629 357.872 117.636C338.263 151.804 354.458 179.502 394.045 179.493C433.638 179.485 481.631 151.773 501.239 117.604C520.85 83.4312 504.652 55.7387 465.059 55.7471Z" fill="white"/>
</g>
<g style="mix-blend-mode:overlay" opacity="0.57">
<path d="M264.813 147.591C266.906 140.754 269.538 134.094 272.684 127.673L289.587 127.669C286.517 134.069 284.038 140.736 282.181 147.587L264.813 147.591Z" fill="white"/>
</g>
</g>
</g>
</g>
<defs>
<clipPath id="clip0">
<rect width="570" height="197" fill="white"/>
</clipPath>
</defs>
</svg>

<svg xmlns="http://www.w3.org/2000/svg" width="570" height="197" fill="none" xmlns:v="https://vecta.io/nano"><style><![CDATA[.B{fill:#fff}.C{opacity:.57}.D{fill:#ff513f}.E{fill:#ffc856}]]></style><g clip-path="url(#A)"><path stroke="#007550" stroke-width="10" d="M5 5h560v187H5z" class="E"/><path d="M0 0h570v197H0z" class="D"/><g style="mix-blend-mode:multiply" opacity=".3" class="D"><path d="M33 197L0 145v52h33z"/></g><g style="mix-blend-mode:multiply" opacity=".2" class="D"><path d="M360 0L570 140V0H360Z"/></g><g style="mix-blend-mode:multiply" opacity=".17" class="D"><path d="M20 28.5L67.5 0H0L20 28.5Z"/></g><g style="mix-blend-mode:multiply" opacity=".1"><path d="M4.162 122.84l10.056-2.695 4.788 24.572-6.704 1.796-8.14-23.673zm15.042 36.024c-1.478.395-2.844.27-4.098-.373-1.228-.7-2.02-1.703-2.38-3.04a4.44 4.44 0 0 1 .569-3.717c.728-1.175 1.85-1.966 3.363-2.372s2.88-.28 4.098.373c1.21.62 1.992 1.597 2.35 2.934s.16 2.616-.595 3.837c-.728 1.176-1.83 1.962-3.31 2.358z" fill="#001e20"/></g><g style="mix-blend-mode:overlay" opacity=".1" class="B"><path d="M510.884 15.56l48.588 36.252-55.7 23.952 7.102-60.204z"/></g><g style="mix-blend-mode:overlay" opacity=".1" class="B"><path d="M385.45 55.62l-7.09 24.51-17.682-18.396 24.773-6.115z"/></g><g style="mix-blend-mode:overlay" opacity=".1" class="B"><path d="M6.758 129.366l22.097 12.758L6.758 154.88v-25.515z"/></g><g style="mix-blend-mode:screen" opacity=".2" class="E"><path d="M467.824 110.735l58.44 26.1-26.1 58.44-58.44-26.1z"/></g><g style="mix-blend-mode:screen" opacity=".2" class="E"><path d="M47-22.566L135.512-62l39.434 88.512-88.512 39.434z"/></g><g style="mix-blend-mode:screen" opacity=".4" class="B"><g class="C"><g style="mix-blend-mode:overlay" class="C"><path d="M354.486 248.43c-43.164.01-73.17-15.564-86.427-40.554l24.756-.005c13.837 16.274 37.798 26.035 70 26.028 41.496-.01 87.898-16.214 127.22-41.68l21.175-.005c-46.866 33.966-105.167 56.206-156.734 56.217z"/></g><g style="mix-blend-mode:overlay" class="C"><path d="M503.04 56.566c-2.178 0-3.07-1.526-1.988-3.4.645-.992 1.516-1.82 2.542-2.41s2.176-.934 3.36-.996c2.183-.001 3.076 1.525 1.997 3.405a7.51 7.51 0 0 1-2.546 2.415c-1.027.593-2.18.935-3.364.997z"/></g><g style="mix-blend-mode:overlay" class="C"><path d="M400.096 168.95c-28.21.007-42.102-16.94-35.158-39.684l6.815-.001c-5.266 19.563 7.078 33.988 31.616 33.983 29.196-.007 64.59-20.44 79.053-45.64 11.24-19.584 6.523-36.278-9.837-42.746l3.47-6.047c19.937 6.7 26.045 26.015 12.974 48.79-16.27 28.35-56.082 51.336-88.933 51.343z"/></g><g style="mix-blend-mode:overlay" class="C"><path d="M370.03 190.533c-29.964-6-43.27-28.676-33.756-57.493h2.555c-8.91 27.626 3.84 49.36 32.464 55.294l-1.263 2.2z"/></g><g style="mix-blend-mode:overlay" class="C"><path d="M408.437 154.414c-23.544.005-33.177-16.464-21.515-36.785s40.204-36.803 63.748-36.81 33.182 16.464 21.518 36.8-40.202 36.8-63.75 36.804zM448.324 84.9c-20.928.004-46.295 14.65-56.664 32.718s-1.804 32.7 19.124 32.697 46.3-14.65 56.666-32.713c10.37-18.068 1.807-32.707-19.126-32.702z"/></g><g style="mix-blend-mode:overlay" class="C"><path d="M466.605 47.244c-2.183 0-3.075-1.526-1.994-3.4a7.51 7.51 0 0 1 2.545-2.412 7.52 7.52 0 0 1 3.362-.995c2.184-.001 3.076 1.525 1.997 3.405a7.52 7.52 0 0 1-2.545 2.415c-1.028.593-2.18.935-3.365.997z"/></g><g style="mix-blend-mode:overlay" class="C"><path d="M374.454 213.633c-61.436.013-86.572-42.963-56.142-95.988 30.433-53.03 104.906-96.028 166.342-96.042 61.442-.014 86.577 42.962 56.145 95.993-30.43 53.025-104.903 96.023-166.345 96.037zM478.53 32.273c-54.61.012-120.806 38.23-147.857 85.37s-4.7 85.338 49.9 85.326 120.814-38.235 147.863-85.37c27.052-47.14 4.71-85.338-49.906-85.326z"/></g><g style="mix-blend-mode:overlay" class="C"><path d="M487.203 49.754c-2.184.001-3.076-1.525-1.995-3.4a7.52 7.52 0 0 1 5.91-3.412c2.178 0 3.076 1.525 1.994 3.4-.646.994-1.52 1.82-2.546 2.414s-2.18.935-3.363.998z"/></g><g style="mix-blend-mode:overlay" class="C"><path d="M260.482 171.813c.23-4.702.812-9.38 1.746-13.996l17.83-.004a76.93 76.93 0 0 0-.814 13.996l-18.76.004z"/></g><g style="mix-blend-mode:overlay" class="C"><path d="M518.978 170.682c18.616-15.918 34.323-33.968 45.297-53.092 28.98-50.496 16.342-93.46-26.547-109.5l8.8-15.335c52.022 16.615 68.23 66.22 34.587 124.843-10.846 18.9-25.807 36.863-43.472 53.09l-18.666.004z"/></g><g style="mix-blend-mode:overlay" class="C"><path d="M392.99 181.335c-40.767.008-57.448-28.513-37.256-63.7s69.616-63.72 110.383-63.73 57.456 28.507 37.26 63.698-69.617 63.72-110.388 63.73zm72.07-125.588c-39.587.01-87.577 27.716-107.187 61.89-19.61 34.168-3.414 61.866 36.173 61.857 39.593-.008 87.586-27.72 107.194-61.89s3.413-61.865-36.18-61.857z"/></g><g style="mix-blend-mode:overlay" class="C"><path d="M264.813 147.59c2.093-6.837 4.725-13.497 7.87-19.918l16.903-.004c-3.07 6.4-5.55 13.067-7.406 19.918l-17.368.004z"/></g></g></g></g><defs><clipPath id="A"><path d="M0 0h570v197H0z" class="B"/></clipPath></defs></svg>
